ametion_vv-test/img/support-main-block-phone.svg

<svg width="278" height="226" viewBox="0 0 278 226" fill="none" xmlns="http://www.w3.org/2000/svg">
<path d="M168.419 124.092C166.061 112.166 161.759 101.073 160.548 90.0395C160.286 87.6571 158.4 85.6565 156.296 85.8218C154.191 85.987 149.623 89.0102 148.447 98.3177C147.595 105.056 153.097 113.893 150.28 116.733C147.463 119.573 170.499 125.4 168.419 124.092Z" fill="#F5C1C7"/>
<path d="M94.8221 34.8568C89.665 36.4611 85.6419 59.6609 84.0433 66.5425C74.284 108.554 60.9217 157.239 59.7356 162.344C58.253 168.726 60.7234 169.86 63.7187 171.677C66.714 173.494 126.251 187.886 131.408 186.282C135.534 184.998 138.017 175.486 138.017 175.486C147.623 135.121 164.277 61.8665 164.549 58.3425C164.889 53.9375 165.507 51.2786 163.16 49.6124C160.813 47.9462 153.463 46.2387 149.789 45.385C133.186 41.3408 102.926 32.3357 94.8221 34.8568Z" fill="#5992E8"/>
<path opacity="0.4" d="M126.015 77.869C127.945 79.8288 128.706 81.6705 128.604 84.4191C128.411 89.6093 121.383 91.9464 116.199 91.6354C115.846 91.6142 115.506 91.5753 115.185 91.5152C112.622 91.035 109.971 85.8814 110.886 81.8552C112.173 76.1999 121.17 74.0087 125.72 77.6052C125.825 77.6888 125.924 77.7766 126.015 77.869Z" fill="#FAF8F9"/>
<path opacity="0.4" d="M122.889 71.7388C121.858 73.1399 120.01 74.2412 118.877 74.5365C118.465 74.644 118.059 74.4624 117.73 74.1901C117.516 74.0118 117.326 73.7916 117.304 73.5132C117.266 73.0258 117.398 72.1848 118.051 71.0107C118.652 69.9291 120.449 69.0974 122.087 68.5642C123.307 68.1674 124.192 68.9858 123.717 70.1766C123.495 70.7314 123.216 71.2944 122.889 71.7388Z" fill="#FAF8F9"/>
<circle opacity="0.4" cx="150.042" cy="60.3767" r="3.62998" transform="rotate(37.0464 150.042 60.3767)" fill="#FAF8F9"/>
<path d="M190.171 165.614C168.856 146.995 172.288 133.976 168.464 123.954C166.222 118.077 155.983 108.115 153.94 116.991C152.996 121.093 141.588 114.875 139.508 113.567C133.298 109.661 126.103 103.544 120.91 99.6276C116.458 96.2704 111.193 91.1173 110.428 97.1189C109.664 103.121 121.7 116.489 125.06 120.947C128.42 125.406 131.779 129.865 126.438 131.327C121.096 132.79 100.174 112.039 93.3445 109.772C86.5145 107.505 83.0441 109.696 95.6475 124.45C108.251 139.203 110.011 146.582 108.884 147.718C107.758 148.854 106.631 149.99 93.263 141.238C79.8949 132.486 70.6307 130.058 68.9408 131.762C67.2508 133.466 68.4661 135.525 69.9566 137.276C74.4459 142.552 93.8761 157.62 95.2743 160.133C96.296 161.97 94.3135 162.575 92.9289 162.498C80.0165 161.781 66.717 158.85 64.9365 159.338C63.1561 159.825 61.5566 162.745 64.8257 165.988C66.9823 168.127 76.4804 173.416 81.2818 175.549C92.8762 182.166 140.778 205.632 144.745 206.863C149.705 208.401 140.548 203.877 145.684 200.931C155.579 195.255 160.771 189.697 167.632 181.701C173.59 174.756 211.486 184.234 190.171 165.614Z" fill="#F5C1C7"/>
<path d="M238.324 189.662C219.166 180.57 183.132 159.563 177.782 151.302C177.709 151.174 177.632 151.047 177.552 150.919C177.621 151.044 177.698 151.171 177.782 151.302C189.558 171.628 125.572 193.645 143.561 205.261C161.664 216.949 299.934 283.054 303.096 265.007C304.951 254.416 327.308 260.272 330.01 250.006C333.2 237.883 358.769 235.857 353.632 228.593C348.495 221.328 257.786 198.898 238.324 189.662Z" fill="#F5C1C7"/>
</svg>

<svg width="278" height="226" fill="none" xmlns="http://www.w3.org/2000/svg"><path d="M168.419 124.092c-2.358-11.926-6.66-23.019-7.871-34.052-.262-2.383-2.148-4.384-4.252-4.218-2.105.165-6.673 3.188-7.849 12.496-.852 6.738 4.65 15.575 1.833 18.415s20.219 8.667 18.139 7.359z" fill="#F5C1C7"/><path d="M94.822 34.857c-5.157 1.604-9.18 24.804-10.779 31.686-9.759 42.011-23.121 90.696-24.307 95.801-1.483 6.382.987 7.516 3.983 9.333 2.995 1.817 62.532 16.209 67.689 14.605 4.126-1.284 6.609-10.796 6.609-10.796 9.606-40.365 26.26-113.62 26.532-117.143.34-4.406.958-7.064-1.389-8.73-2.347-1.667-9.697-3.374-13.371-4.228-16.603-4.044-46.863-13.05-54.967-10.528z" fill="#5992E8"/><path opacity=".4" d="M126.015 77.869c1.93 1.96 2.691 3.802 2.589 6.55-.193 5.19-7.221 7.527-12.405 7.216a8.202 8.202 0 01-1.014-.12c-2.563-.48-5.214-5.634-4.299-9.66 1.287-5.655 10.284-7.846 14.834-4.25.105.084.204.172.295.264zm-3.126-6.13c-1.031 1.4-2.879 2.502-4.012 2.797-.412.108-.818-.074-1.147-.346-.214-.178-.404-.398-.426-.677-.038-.487.094-1.328.747-2.502.601-1.082 2.398-1.914 4.036-2.447 1.22-.397 2.105.422 1.63 1.613-.222.554-.501 1.117-.828 1.562z" fill="#FAF8F9"/><circle opacity=".4" cx="150.042" cy="60.377" r="3.63" transform="rotate(37.046 150.042 60.377)" fill="#FAF8F9"/><path d="M190.171 165.614c-21.315-18.619-17.883-31.638-21.707-41.66-2.242-5.877-12.481-15.839-14.524-6.963-.944 4.102-12.352-2.116-14.432-3.424-6.21-3.906-13.405-10.023-18.598-13.94-4.452-3.357-9.717-8.51-10.482-2.508-.764 6.002 11.272 19.37 14.632 23.828 3.36 4.459 6.719 8.918 1.378 10.38-5.342 1.463-26.264-19.288-33.094-21.555-6.83-2.267-10.3-.076 2.303 14.678 12.604 14.753 14.364 22.132 13.237 23.268-1.126 1.136-2.253 2.272-15.621-6.48s-22.632-11.18-24.322-9.476c-1.69 1.704-.475 3.763 1.016 5.514 4.489 5.276 23.92 20.344 25.317 22.857 1.022 1.837-.96 2.442-2.345 2.365-12.913-.717-26.212-3.648-27.993-3.16-1.78.487-3.38 3.407-.11 6.65 2.156 2.139 11.654 7.428 16.456 9.561 11.594 6.617 59.496 30.083 63.463 31.314 4.96 1.538-4.197-2.986.939-5.932 9.895-5.676 15.087-11.234 21.948-19.23 5.958-6.945 43.854 2.533 22.539-16.087z" fill="#F5C1C7"/><path d="M238.324 189.662c-19.158-9.092-55.192-30.099-60.542-38.36-.073-.128-.15-.255-.23-.383.069.125.146.252.23.383 11.776 20.326-52.21 42.343-34.221 53.959 18.103 11.688 156.373 77.793 159.535 59.746 1.855-10.591 24.212-4.735 26.914-15.001 3.19-12.123 28.759-14.149 23.622-21.413-5.137-7.265-95.846-29.695-115.308-38.931z" fill="#F5C1C7"/></svg>
